resources/haticons/SVG/move-up.svg

<!-- Generated by IcoMoon.io -->
<svg version="1.1" xmlns="http://www.w3.org/2000/svg" width="24" height="24" viewBox="0 0 24 24">
<title>move-up</title>
<path d="M16.5 12v9h1.5v-9h3.75l-4.5-4.5-4.5 4.5z"></path>
<path d="M1.5 4.5h2.25v1.5h-2.25v-1.5z"></path>
<path d="M4.5 4.5h2.25v1.5h-2.25v-1.5z"></path>
<path d="M7.5 4.5h1.5v2.25h-1.5v-2.25z"></path>
<path d="M1.5 9.75h1.5v2.25h-1.5v-2.25z"></path>
<path d="M3.75 10.5h2.25v1.5h-2.25v-1.5z"></path>
<path d="M6.75 10.5h2.25v1.5h-2.25v-1.5z"></path>
<path d="M1.5 6.75h1.5v2.25h-1.5v-2.25z"></path>
<path d="M7.5 7.5h1.5v2.25h-1.5v-2.25z"></path>
<path d="M7.5 16.5v4.5h-4.5v-4.5h4.5zM9 15h-7.5v7.5h7.5v-7.5z"></path>
</svg>

<svg xmlns="http://www.w3.org/2000/svg" width="24" height="24"><path d="M16.5 12v9H18v-9h3.75l-4.5-4.5-4.5 4.5zm-15-7.5h2.25V6H1.5V4.5zm3 0h2.25V6H4.5V4.5zm3 0H9v2.25H7.5V4.5zm-6 5.25H3V12H1.5V9.75zm2.25.75H6V12H3.75v-1.5zm3 0H9V12H6.75v-1.5zM1.5 6.75H3V9H1.5V6.75zm6 .75H9v2.25H7.5V7.5zm0 9V21H3v-4.5h4.5zM9 15H1.5v7.5H9V15z"/></svg>
